X: 2
T: Mazurka FBb 
M:3/4
L:1/8
K:F
"F"Ac fa gf | "Bb"e2 d>^c d2 | "C7"c>b a2g2 | "F"d2 c>=B c2 | Ac fa gf | "Bb"e2 d>^c d2 | "C7"cg b2 a>g | "F"f2f2z2 :: 
"C7"g>g c4 | "F"a>a f4 | "C7"c2 e>f g2 | "F"c2 f>g a2 | "C7"g>g c4 | "F"a>a f4 | "C7"c2e>f ga | "F"f2f2 z2 :: [K:Bb] 
"Bb"Tf2 +>+d4 |"F7" Tf2 +>+e4 | c'b ag fe | "Bb"dc Bg f2 |  Tf2 +>+d4 | "F7"Tf2 +>+e4 | c'b ag fa | "Bb"b2b2z2 :| 

